local/share/icons/dracula-icons-main/scalable/apps/gdebi.svg

<svg width="64" height="64" version="1.1" viewBox="0 0 16.933 16.933" xmlns="http://www.w3.org/2000/svg">
 <circle cx="8.4668" cy="8.4704" r="7.1438" fill="#f6476b" stroke-width=".96299" style="paint-order:stroke markers fill"/>
 <path d="m4.9672 7.0842c0.046733-0.1397 0.055063-0.22357 0.072923-0.30489-0.12876 0.16095-0.059369 0.19526-0.072923 0.30489m0.23797-0.97116c0.023213 0.20966-0.16138 0.29141 0.040805 0.15291 0.10857-0.23889-0.042216-0.066075-0.040805-0.15291m3.5335-1.8361c0.10067-0.035932 0.24715-0.019771 0.35438-0.043416-0.13941 0.011366-0.278 0.018224-0.41481 0.035225l0.06046 0.00817m3.2337 3.9165-0.02188 0.053744c-0.04023 0.27828-0.12706 0.55359-0.2598 0.809 0.14683-0.26938 0.24144-0.56411 0.28167-0.86272m-4.0926 0.86957c-0.052029-0.05605-0.082233-0.1234-0.11676-0.19067 0.032899 0.11789 0.10016 0.21926 0.16265 0.32247l-0.045892-0.13173m-0.2312 0.00884-0.021078 0.10194c0.097921 0.12995 0.17564 0.27072 0.30045 0.37195-0.089864-0.17127-0.15651-0.242-0.27941-0.47389m1.2188-4.6821-0.056031 0.011393 0.052083-0.00468 0.00401-0.00672m-0.15842-0.043054c0.079484 0.013821 0.17172 0.024548 0.15846 0.043131 0.087382-0.018757 0.10678-0.035706-0.15841-0.043117m1.6578 3.5807c0.01814-0.262-0.05269-0.17905-0.0765-0.079255 0.0277 0.014221 0.04971 0.18479 0.0765 0.079255m-0.29477 0.75013c0.08896-0.11966 0.1539-0.25054 0.17647-0.38586-0.02055 0.09636-0.07342 0.17966-0.12423 0.26762-0.278 0.17126-0.02615-0.10165 0-0.2055-0.29904 0.36829-0.04096 0.22082-0.05224 0.32374m-0.79863 0.19441c-0.14883 0.00191 0.027989 0.074772 0.22234 0.10408 0.053897-0.041084 0.1023-0.082369 0.14573-0.12268-0.12081 0.02892-0.24395 0.029598-0.36806 0.018597m-4.3059-1.7878c0.046733-0.13992 0.055063-0.22385 0.072923-0.30496-0.12883 0.16102-0.059369 0.1954-0.072923 0.30496m0.23783-0.97116c0.023213 0.20973-0.16131 0.29127 0.040874 0.15277 0.10857-0.23889-0.042216-0.065863-0.040874-0.15277m3.5332-1.8365c0.10051-0.035927 0.24723-0.019771 0.35421-0.043424-0.13925 0.011393-0.27781 0.018196-0.41457 0.035246l0.060354 0.00819m3.2338 3.9169-0.02189 0.053744c-0.04023 0.27835-0.12705 0.55367-0.25979 0.80907 0.14683-0.26938 0.24144-0.56411 0.28167-0.86272m-4.0924 0.86943c-0.051816-0.05605-0.082233-0.12347-0.11676-0.19046 0.032898 0.11796 0.10024 0.21926 0.1627 0.32247l-0.045946-0.13201m-0.2312 0.00876-0.021078 0.10194c0.097921 0.13002 0.17564 0.27079 0.30045 0.37202-0.089863-0.17127-0.15651-0.242-0.27941-0.47396m1.2187-4.6822-0.055871 0.011393 0.052083-0.00468 0.00373-0.00672m2.2196 3.6468c0.0083 0.21998-0.0643 0.32688-0.12988 0.51593l-0.11793 0.058548c-0.0964 0.18702 0.0096 0.11874-0.05948 0.26743-0.15066 0.13358-0.45658 0.41785-0.5545 0.44388-0.07158-0.0016 0.04843-0.084316 0.06412-0.11664-0.20189 0.13808-0.16165 0.20726-0.46993 0.29134l-0.00907-0.020009c-0.75974 0.35692-1.8152-0.35028-1.8013-1.3151-8e-3 0.061204-0.023213 0.045884-0.039889 0.070452-0.039168-0.49634 0.2297-0.99487 0.68313-1.1987 0.44354-0.21912 0.96353-0.12933 1.2812 0.16653-0.17466-0.22823-0.52204-0.47015-0.93346-0.44777-0.40323 0.0065636-0.78055 0.26232-0.90635 0.54011-0.20649 0.12975-0.23056 0.50051-0.32049 0.56835-0.12121 0.8887 0.22773 1.2724 0.81811 1.7242 0.092665 0.062462 0.026147 0.072018 0.038475 0.11956-0.19611-0.091625-0.37556-0.23008-0.52331-0.39949 0.078417 0.11444 0.163 0.2257 0.27235 0.31315-0.18504-0.062408-0.4321-0.44735-0.50404-0.46302 0.31873 0.56976 1.2931 0.99904 1.8035 0.78585-0.23621 0.0090845-0.53616 0.0050667-0.80138-0.092772-0.11174-0.057307-0.26303-0.17578-0.23592-0.19787 0.69646 0.25958 1.4157 0.19651 2.0181-0.28564 0.15342-0.11928 0.32086-0.32206 0.36929-0.32479-0.07287 0.10944 0.01253 0.052628-0.04351 0.14924 0.15248-0.24593-0.06649-0.10016 0.15779-0.42469l0.08282 0.11382c-0.03101-0.20433 0.25401-0.45214 0.225-0.77505 0.0654-0.098698 0.07287 0.10636 0.0035 0.33344 0.09621-0.25195 0.02535-0.29247 0.05008-0.50047 0.02642 0.069927 0.06185 0.14414 0.0798 0.21799-0.06275-0.24357 0.06412-0.41002 0.09568-0.55163-0.03119-0.01366-0.09678 0.10763-0.1119-0.17992 0.0023-0.12493 0.03492-0.065469 0.04741-0.09624-0.02454-0.014115-0.08893-0.1099-0.12804-0.29356 0.02818-0.043254 0.07588 0.11191 0.11454 0.11819-0.02481-0.14597-0.06767-0.25732-0.0695-0.3694-0.11308-0.23583-0.04005 0.031508-0.13159-0.10125-0.12039-0.3746 0.09979-0.086958 0.11473-0.25704 0.18224 0.2636 0.28611 0.67247 0.33399 0.84169-0.03648-0.20642-0.09531-0.40646-0.16727-0.59995 0.05555 0.0234-0.08927-0.42461 0.07214-0.12793-0.17296-0.63231-0.73734-1.2232-1.2568-1.5004 0.06355 0.058028 0.14387 0.13083 0.11518 0.14231-0.25842-0.15347-0.21323-0.16561-0.25066-0.23042-0.21036-0.085488-0.22378 0.0069867-0.36356 2.119e-4 -0.39621-0.21033-0.47259-0.18795-0.83749-0.31946l0.016542 0.077582c-0.26276-0.087465-0.30616 0.032968-0.59016 1.412e-4 -0.017343-0.013341 0.091064-0.048779 0.18023-0.061629-0.25406 0.033531-0.24222-0.050052-0.49084 0.0091784 0.061208-0.04285 0.12615-0.07137 0.19144-0.1078-0.20713 0.012567-0.49472 0.12036-0.40598 0.022226-0.33793 0.15057-0.93812 0.36193-1.2749 0.67727l-0.010512-0.070653c-0.15433 0.18488-0.67305 0.55232-0.71435 0.79213l-0.041367 0.00953c-0.080125 0.13575-0.13222 0.28957-0.1959 0.42913-0.10497 0.17874-0.15396 0.068828-0.139 0.096854-0.20656 0.41813-0.30934 0.76947-0.39794 1.0577 0.06311 0.094242 0.00163 0.5675 0.025401 0.94617-0.10363 1.8706 1.3149 3.687 2.8656 4.1056 0.22725 0.08188 0.56517 0.07906 0.8527 0.08683-0.33913-0.096728-0.3829-0.05153-0.71342-0.16661-0.23832-0.11225-0.29049-0.24003-0.45935-0.38615l0.066864 0.11791c-0.33108-0.11719-0.19259-0.14472-0.46204-0.23013l0.071453-0.09248c-0.10681-0.0085-0.28372-0.18071-0.33228-0.27673l-0.11748 0.0045c-0.14097-0.17363-0.21623-0.29857-0.21065-0.39599l-0.037979 0.06777c-0.04292-0.07413-0.519-0.65228-0.27207-0.51745-0.045884-0.04165-0.10688-0.06777-0.17302-0.18778l0.050257-0.05728c-0.11867-0.15318-0.2187-0.34874-0.211-0.41368 0.063393 0.0854 0.1073 0.10094 0.15093 0.11577-0.30016-0.74335-0.31704-0.04096-0.54421-0.75662l0.047971-0.00373c-0.036778-0.05563-0.059369-0.11564-0.088877-0.17471l0.020972-0.20812c-0.21596-0.24933-0.060301-1.0605-0.029028-1.5052 0.02139-0.18086 0.1803-0.37358 0.30073-0.67558l-0.073489-0.012487c0.14062-0.24482 0.80279-0.98337 1.1096-0.94546 0.14854-0.1863-0.02959-7.06e-4 -0.058673-0.047509 0.32642-0.33715 0.42907-0.23818 0.64932-0.29889 0.23741-0.14069-0.20387 0.054993-0.091358-0.053651 0.41071-0.10462 0.29099-0.23804 0.82665-0.29113 0.056538 0.03205-0.13109 0.049556-0.17818 0.091136 0.34203-0.16717 1.0826-0.12897 1.5638 0.092689 0.55797 0.26056 1.1848 1.0302 1.2103 1.7544l0.02818 0.00755c-0.01414 0.28792 0.04413 0.62088-0.05718 0.92661l0.06849-0.14486m-2.3782-3.6897c0.079484 0.013821 0.17172 0.024548 0.15849 0.043133 0.087249-0.018784 0.10689-0.035732-0.15849-0.043133m1.6583 3.581c0.01814-0.26201-0.05269-0.17905-0.0765-0.079255 0.0277 0.014221 0.04971 0.1848 0.0765 0.079255m-0.29508 0.75013c0.08896-0.11966 0.1539-0.25054 0.17647-0.38586-0.02055 0.09636-0.07343 0.17959-0.12423 0.26762-0.278 0.17126-0.02615-0.10165 0-0.2055-0.29904 0.36829-0.04096 0.22082-0.05224 0.32374m-0.79849 0.19463c-0.1488 0.0019 0.027963 0.074759 0.22231 0.10406 0.05387-0.041084 0.1023-0.082382 0.14571-0.12269-0.12079 0.028944-0.2439 0.029649-0.36801 0.018624" fill="#ffffff" stroke-width=".70594"/>
</svg>

<?xml version="1.0" encoding="UTF-8"?>
<svg xmlns="http://www.w3.org/2000/svg" xmlns:xlink="http://www.w3.org/1999/xlink" width="64" height="64" viewBox="0 0 64 64">
<path fill-rule="nonzero" fill="rgb(96.470588%, 27.843137%, 41.960784%)" fill-opacity="1" d="M 15.609375 8.46875 C 15.609375 12.414062 12.414062 15.613281 8.46875 15.613281 C 4.519531 15.613281 1.324219 12.414062 1.324219 8.46875 C 1.324219 4.523438 4.519531 1.328125 8.46875 1.328125 C 12.414062 1.328125 15.609375 4.523438 15.609375 8.46875 Z M 15.609375 8.46875 "/>
<path fill-rule="nonzero" fill="rgb(100%, 100%, 100%)" fill-opacity="1" d="M 4.96875 7.085938 C 5.015625 6.945312 5.023438 6.859375 5.039062 6.78125 C 4.910156 6.941406 4.980469 6.972656 4.96875 7.085938 M 5.207031 6.113281 C 5.226562 6.324219 5.042969 6.40625 5.246094 6.265625 C 5.355469 6.027344 5.203125 6.199219 5.207031 6.113281 M 8.738281 4.277344 C 8.839844 4.242188 8.984375 4.257812 9.09375 4.234375 C 8.953125 4.246094 8.816406 4.25 8.679688 4.269531 L 8.738281 4.277344 M 11.972656 8.195312 L 11.949219 8.246094 C 11.910156 8.527344 11.824219 8.800781 11.691406 9.054688 C 11.835938 8.785156 11.933594 8.492188 11.972656 8.195312 M 7.878906 9.0625 C 7.828125 9.007812 7.796875 8.941406 7.761719 8.871094 C 7.796875 8.988281 7.863281 9.089844 7.925781 9.195312 L 7.878906 9.0625 M 7.648438 9.070312 L 7.628906 9.175781 C 7.726562 9.304688 7.804688 9.445312 7.929688 9.546875 C 7.839844 9.375 7.769531 9.304688 7.648438 9.070312 M 8.867188 4.390625 L 8.8125 4.402344 L 8.863281 4.398438 L 8.867188 4.390625 M 8.710938 4.347656 C 8.789062 4.359375 8.878906 4.371094 8.867188 4.390625 C 8.953125 4.371094 8.972656 4.355469 8.710938 4.347656 M 10.367188 7.925781 C 10.386719 7.664062 10.3125 7.75 10.289062 7.847656 C 10.316406 7.863281 10.339844 8.03125 10.367188 7.925781 M 10.070312 8.675781 C 10.160156 8.558594 10.226562 8.425781 10.25 8.292969 C 10.226562 8.386719 10.175781 8.472656 10.125 8.558594 C 9.847656 8.730469 10.097656 8.457031 10.125 8.355469 C 9.824219 8.722656 10.082031 8.574219 10.070312 8.675781 M 9.273438 8.871094 C 9.125 8.875 9.300781 8.945312 9.496094 8.976562 C 9.550781 8.933594 9.597656 8.894531 9.640625 8.851562 C 9.519531 8.882812 9.398438 8.882812 9.273438 8.871094 M 4.96875 7.085938 C 5.015625 6.945312 5.023438 6.859375 5.039062 6.777344 C 4.910156 6.941406 4.980469 6.976562 4.96875 7.085938 M 5.207031 6.113281 C 5.230469 6.324219 5.042969 6.40625 5.246094 6.265625 C 5.355469 6.027344 5.203125 6.199219 5.207031 6.113281 M 8.738281 4.277344 C 8.839844 4.242188 8.984375 4.257812 9.09375 4.234375 C 8.953125 4.246094 8.816406 4.25 8.679688 4.269531 L 8.738281 4.277344 M 11.972656 8.195312 L 11.949219 8.246094 C 11.910156 8.527344 11.824219 8.800781 11.691406 9.054688 C 11.835938 8.785156 11.933594 8.492188 11.972656 8.195312 M 7.878906 9.0625 C 7.828125 9.007812 7.796875 8.941406 7.761719 8.871094 C 7.796875 8.992188 7.863281 9.089844 7.925781 9.195312 L 7.878906 9.0625 M 7.648438 9.070312 L 7.628906 9.171875 C 7.726562 9.304688 7.804688 9.445312 7.929688 9.546875 C 7.839844 9.375 7.773438 9.304688 7.648438 9.070312 M 8.867188 4.390625 L 8.8125 4.402344 L 8.863281 4.394531 L 8.867188 4.390625 M 11.085938 8.035156 C 11.09375 8.257812 11.023438 8.363281 10.957031 8.550781 L 10.839844 8.609375 C 10.742188 8.796875 10.847656 8.730469 10.78125 8.878906 C 10.628906 9.011719 10.324219 9.296875 10.226562 9.320312 C 10.152344 9.320312 10.273438 9.238281 10.289062 9.207031 C 10.085938 9.34375 10.128906 9.414062 9.820312 9.496094 L 9.808594 9.476562 C 9.050781 9.832031 7.996094 9.125 8.007812 8.160156 C 8 8.222656 7.984375 8.207031 7.96875 8.230469 C 7.929688 7.734375 8.199219 7.238281 8.652344 7.035156 C 9.097656 6.8125 9.617188 6.902344 9.933594 7.199219 C 9.757812 6.972656 9.410156 6.730469 9 6.753906 C 8.597656 6.757812 8.21875 7.015625 8.09375 7.292969 C 7.886719 7.421875 7.863281 7.792969 7.773438 7.859375 C 7.652344 8.75 8 9.132812 8.589844 9.585938 C 8.683594 9.648438 8.617188 9.65625 8.628906 9.703125 C 8.433594 9.613281 8.253906 9.472656 8.105469 9.304688 C 8.183594 9.417969 8.269531 9.53125 8.378906 9.617188 C 8.195312 9.554688 7.945312 9.171875 7.875 9.15625 C 8.195312 9.726562 9.167969 10.152344 9.679688 9.941406 C 9.441406 9.949219 9.140625 9.945312 8.875 9.847656 C 8.765625 9.789062 8.613281 9.671875 8.640625 9.648438 C 9.335938 9.910156 10.054688 9.847656 10.660156 9.363281 C 10.8125 9.246094 10.980469 9.042969 11.027344 9.039062 C 10.957031 9.148438 11.039062 9.09375 10.984375 9.1875 C 11.136719 8.941406 10.917969 9.089844 11.144531 8.765625 L 11.226562 8.878906 C 11.195312 8.675781 11.480469 8.425781 11.449219 8.101562 C 11.515625 8.003906 11.523438 8.210938 11.453125 8.4375 C 11.550781 8.183594 11.480469 8.144531 11.503906 7.9375 C 11.53125 8.007812 11.566406 8.082031 11.582031 8.152344 C 11.519531 7.910156 11.648438 7.742188 11.679688 7.601562 C 11.648438 7.589844 11.582031 7.710938 11.566406 7.421875 C 11.570312 7.296875 11.601562 7.355469 11.613281 7.328125 C 11.589844 7.3125 11.527344 7.214844 11.488281 7.03125 C 11.515625 6.988281 11.5625 7.144531 11.601562 7.152344 C 11.578125 7.003906 11.535156 6.894531 11.53125 6.78125 C 11.417969 6.546875 11.492188 6.8125 11.398438 6.679688 C 11.28125 6.304688 11.5 6.59375 11.515625 6.421875 C 11.699219 6.6875 11.800781 7.097656 11.847656 7.265625 C 11.8125 7.058594 11.753906 6.859375 11.683594 6.664062 C 11.738281 6.6875 11.59375 6.242188 11.753906 6.539062 C 11.582031 5.90625 11.015625 5.3125 10.496094 5.035156 C 10.5625 5.09375 10.640625 5.167969 10.613281 5.179688 C 10.355469 5.027344 10.398438 5.011719 10.363281 4.949219 C 10.152344 4.863281 10.136719 4.957031 10 4.949219 C 9.601562 4.738281 9.527344 4.761719 9.160156 4.628906 L 9.175781 4.707031 C 8.914062 4.621094 8.871094 4.738281 8.585938 4.707031 C 8.570312 4.695312 8.679688 4.660156 8.765625 4.644531 C 8.511719 4.679688 8.523438 4.59375 8.277344 4.65625 C 8.335938 4.613281 8.402344 4.582031 8.46875 4.546875 C 8.261719 4.558594 7.972656 4.667969 8.0625 4.570312 C 7.722656 4.71875 7.125 4.929688 6.785156 5.246094 L 6.777344 5.175781 C 6.621094 5.359375 6.101562 5.726562 6.0625 5.96875 L 6.019531 5.976562 C 5.941406 6.113281 5.886719 6.265625 5.824219 6.40625 C 5.71875 6.585938 5.671875 6.476562 5.6875 6.503906 C 5.480469 6.921875 5.375 7.273438 5.289062 7.5625 C 5.351562 7.65625 5.289062 8.128906 5.3125 8.507812 C 5.210938 10.378906 6.628906 12.195312 8.179688 12.613281 C 8.40625 12.695312 8.742188 12.691406 9.03125 12.699219 C 8.691406 12.601562 8.648438 12.648438 8.316406 12.53125 C 8.078125 12.421875 8.027344 12.292969 7.859375 12.148438 L 7.925781 12.265625 C 7.59375 12.148438 7.734375 12.121094 7.464844 12.035156 L 7.535156 11.941406 C 7.429688 11.933594 7.25 11.761719 7.203125 11.664062 L 7.085938 11.671875 C 6.945312 11.496094 6.867188 11.371094 6.875 11.273438 L 6.835938 11.339844 C 6.792969 11.265625 6.316406 10.6875 6.566406 10.824219 C 6.519531 10.78125 6.457031 10.757812 6.390625 10.636719 L 6.441406 10.578125 C 6.324219 10.425781 6.222656 10.230469 6.230469 10.164062 C 6.292969 10.25 6.339844 10.265625 6.382812 10.28125 C 6.082031 9.539062 6.066406 10.242188 5.835938 9.523438 L 5.886719 9.519531 C 5.847656 9.464844 5.828125 9.40625 5.796875 9.347656 L 5.816406 9.136719 C 5.601562 8.890625 5.757812 8.078125 5.789062 7.632812 C 5.808594 7.453125 5.96875 7.257812 6.089844 6.957031 L 6.015625 6.945312 C 6.15625 6.699219 6.820312 5.960938 7.125 6 C 7.273438 5.8125 7.097656 6 7.066406 5.953125 C 7.394531 5.613281 7.496094 5.714844 7.714844 5.652344 C 7.953125 5.511719 7.511719 5.707031 7.625 5.597656 C 8.035156 5.496094 7.914062 5.359375 8.453125 5.308594 C 8.507812 5.339844 8.320312 5.359375 8.273438 5.398438 C 8.617188 5.230469 9.355469 5.269531 9.835938 5.492188 C 10.394531 5.753906 11.023438 6.523438 11.046875 7.246094 L 11.074219 7.253906 C 11.0625 7.542969 11.121094 7.875 11.019531 8.179688 L 11.085938 8.035156 M 8.707031 4.347656 C 8.789062 4.359375 8.878906 4.371094 8.867188 4.390625 C 8.953125 4.371094 8.972656 4.351562 8.707031 4.347656 M 10.367188 7.925781 C 10.386719 7.664062 10.3125 7.746094 10.289062 7.847656 C 10.316406 7.863281 10.339844 8.03125 10.367188 7.925781 M 10.070312 8.675781 C 10.160156 8.558594 10.226562 8.425781 10.25 8.292969 C 10.226562 8.386719 10.175781 8.472656 10.125 8.558594 C 9.847656 8.730469 10.097656 8.457031 10.125 8.351562 C 9.824219 8.722656 10.082031 8.574219 10.070312 8.675781 M 9.273438 8.871094 C 9.125 8.875 9.300781 8.945312 9.496094 8.976562 C 9.550781 8.933594 9.597656 8.894531 9.640625 8.851562 C 9.519531 8.882812 9.398438 8.882812 9.273438 8.871094 "/>
</svg>
